X: 88
T: Preludium c-moll
C: Maria Szymanowska
%%abc-version 2.0
%%abcx-abcm2ps-target-version 5.9.1 (29 Sep 2008)
%%abc-creator hum2abc beta
%%abcx-conversion-date 2021/10/04 07:38:41
%%abc-edited-by Leszek Kubiak
%%abc-edited-by Marcin Jachim
%%abcx-initial-encoding-date 2020-06-16
%%humdrum-veritas 251744617
%%humdrum-veritas-data 2699249061
%%linebreak <none>
%%barnumbers 0
L: 1/16
M: 3/8
N: Derived from pl-kozmzk--mzk-m-31--015_szymanowska-maria--preludium-c-moll.krn
%%staves {1 2}
V: 1 clef=treble
V: 2 clef=bass
K: C
[V:1] [c2e2g2c'2] z C/E/ G/c/e/g/ | 
[V:2] [C,,2C,2] z C/G,/ E,/C,/G,,/E,,/ | 
[V:1] [c2e2g2c'2] z C/E/ G/c/e/g/ | 
[V:2] [C,,2C,2] z C/G,/ E,/C,/G,,/E,,/ | 
[V:1] !fermata![c4e4g4c'4]z2 | 
[V:2] !fermata![C,,4C,4]z2 | 
[V:1] d2e2d2 & d/G/F/G/ e/G/F/G/ d/G/F/G/ | 
[V:2] B,2G,2G,2 & C,6 | 
[V:1] c2B2A2 & c/G/E/G/ B/G/E/G/ A/G/E/G/ | 
[V:2] C2G,2G,2 & C,6 | 
[V:1] G2A2B2 & G/F/D/F/ A/F/D/F/ B/F/D/F/ | 
[V:2] B,2G,2D2 & C,6 | 
[V:1] c4^c2 & c/G/E/G/ E/G/E/G/ ^c/G/E/G/ | 
[V:2] C2G,2G,2 & C,6 | 
[V:1] d2e2f2 & d/G/F/G/ e/G/F/G/ f/G/F/G/ | 
[V:2] B,2G,2G,2 & C,6 | 
[V:1] x4e2 & g/G/E/G/ E/G/E/G/ e/G/E/G/ | 
[V:2] C2G,2G,2 & C,6 | 
[V:1] d2e2d2 & d/G/F/G/ e/G/F/G/ d/G/F/G/ | 
[V:2] B,2G,2G,2 & C,6 | 
[V:1] c4z2 & c/G/E/G/ E/G/E/G/ E/G/E/G/ | 
[V:2] C2G,2G,2 & C,6 | 
[V:1] e2d2e2 & e/_B/G/B/ d/B/G/B/ e/B/G/B/ | 
[V:2] C2_B,2G,2 & C,6 | 
[V:1] f4f2 & f/A/F/A/ F/A/F/A/ f/A/F/A/ | 
[V:2] C2A,2A,2 & C,6 | 
[V:1] f2g2f2 & f/=B/G/B/ g/B/G/B/ f/B/G/B/ | 
[V:2] =B,2G,2G,2 & C,6 | 
[V:1] e4e2 & e/c/G/c/ G/c/G/c/ e/c/G/c/ | 
[V:2] C2G,2G,2 & C,6 | 
[V:1] e2d2e2 & e/_B/G/B/ d/B/G/A/ e/B/G/B/ | 
[V:2] C2_B,2G,2 & C,6 | 
[V:1] f4f2 & f/A/F/A/ F/A/F/A/ f/A/F/A/ | 
[V:2] C2A,2A,2 & C,6 | 
[V:1] f2a2g2 & f/=B/G/B/ a/B/G/B/ g/B/G/B/ | 
[V:2] =B,2G,2G,2 & C,6 | 
[V:1] e4e2 & e/c/G/c/ G/c/G/c/ e/c/G/c/ | 
[V:2] C2G,2G,2 & C,6 | 
[V:1] d2e2d2 & d/G/F/G/ e/G/F/G/ d/G/F/G/ | 
[V:2] B,2G,2G,2 & C,6 | 
[V:1] c2B2A2 & c/G/E/G/ B/G/E/G/ A/G/E/G/ | 
[V:2] C2G,2G,2 & C,6 | 
[V:1] G2!accent!_A2G2 & G/F/D/F/ _A/F/D/F/ G/F/D/F/ | 
[V:2] B,2G,2G,2 & C,6 | 
[V:1] c4^c2 & c/G/E/G/ E/G/E/G/ ^c/G/E/G/ | 
[V:2] C2G,2G,2 & C,6 | 
[V:1] d2e2f2 & d/G/F/G/ e/G/F/G/ f/G/F/G/ | 
[V:2] B,2G,2G,2 & C,6 | 
[V:1] x4e2 & g/G/E/G/ E/G/E/G/ e/G/E/G/ | 
[V:2] C2G,2G,2 & C,6 | 
[V:1] d2e2d2 & d/G/F/G/ e/G/F/G/ d/G/F/G/ | 
[V:2] B,2G,2G,2 & C,6 | 
[V:1] c4c2 & c/G/E/G/ E/G/E/G/ c/G/E/G/ | 
[V:2] [C,4C4]z2 | 
[V:1] g4g2 & g/B/G/B/ G/B/G/B/ g/[B/d/][G/B/][B/d/] | 
[V:2] [G,,,4G,,4]{/^F,} !accent!G,2 | 
[V:1] g4g2 & g/c/A/c/ A/c/A/c/ g/c/A/c/ | 
[V:2] [G,,,4G,,4]{/^F,} !accent!G,2 | 
[V:1] g4g2 & g/d/B/d/ B/d/B/d/ g/d/B/d/ | 
[V:2] [G,,,4G,,4]{/^F,} !accent!G,2 | 
[V:1] g4g2 & g/_e/c/e/ c/e/c/e/ g/e/c/e/ | 
[V:2] [G,,,4G,,4]{/^F,} !accent!G,2 | 
[V:1] g4g2 & g/f/d/f/ d/f/d/f/ g/f/d/f/ | 
[V:2] [G,,,4G,,4]{/^F,} !accent!G,2 | 
[V:1] g4g2 & g/_e/c/e/ c/e/c/e/ g/e/c/e/ | 
[V:2] [G,,,4G,,4]{/^F,} !accent!G,2 | 
[V:1] ^f2f2f2 & ^f/_e/c/e/ f/d/c/d/ f/e/c/e/ | 
[V:2] [G,,2G,2][G,,2G,2][G,,2G,2] | 
[V:1] x4g2 & g/d/B/d/ B/d/B/d/ g/d/B/d/ | 
[V:2] [G,,4G,4]z2 | 
[V:1] d2e2d2 & d/G/F/G/ e/G/F/G/ d/G/F/G/ | 
[V:2] B,2G,2G,2 & C,6 | 
[V:1] c2B2A2 & c/G/E/G/ B/G/E/G/ A/G/E/G/ | 
[V:2] C2G,2G,2 & C,6 | 
[V:1] G2A2B2 & G/F/D/F/ A/F/D/F/ B/F/D/F/ | 
[V:2] B,2G,2D2 & C,6 | 
[V:1] c4^c2 & c/G/E/G/ E/G/E/G/ ^c/G/E/G/ | 
[V:2] D2G,2G,2 & C,6 | 
[V:1] d2e2f2 & d/G/F/G/ e/G/F/G/ f/G/F/G/ | 
[V:2] B,2G,2G,2 & C,6 | 
[V:1] g4e2 & g/G/E/G/ E/G/E/G/ e/G/E/G/ | 
[V:2] C2G,2G,2 & C,6 | 
[V:1] d2e2d2 & d/G/F/G/ e/G/F/G/ d/G/F/G/ | 
[V:2] B,2G,2G,2 & C,6 | 
[V:1] c4c2 & c/G/E/G/ E/G/E/G/ c/G/E/G/ | 
[V:2] [C,4C4][C,2C2] | 
[V:1] c4c2 & c/G/E/G/ E/G/E/G/ c/G/E/G/ | 
[V:2] [B,,4B,4][B,,2B,2] | 
[V:1] c2B2c2 & c/^F/D/F/ B/F/D/F/ c/F/D/F/ | 
[V:2] [A,,4A,4][A,,2A,2] | 
[V:1] e2d2c2 & e/A/D/A/ d/A/D/A/ c/A/D/A/ | 
[V:2] [^F,,4^F,4][F,,2F,2] | 
[V:1] B2g2b2 & B/G/D/G/ g/d/B/d/ b/g/d/g/ | 
[V:2] [G,,4G,4][G,,2G,2] | 
[V:1] d'2c'2a2 & d'/e/c/e/ c'/e/c/e/ a/e/c/e/ | 
[V:2] [C,,4C,4][C,,2C,2] | 
[V:1] g2g2g2 & g/d/B/d/ g/_B/G/B/ g/B/G/B/ | 
[V:2] [D,,2D,2][_E,,2_E,2][^C,,2^C,2] | 
[V:1] g2a2^f2 & g/=B/G/B/ a/c/A/c/ ^f/c/A/c/ | 
[V:2] !wedge![D,,2D,2]!wedge![D,,2D,2]!wedge![D,,2D,2] | 
[V:1] g4g2 & g/B/G/B/ G/B/G/B/ g/d/B/d/ | 
[V:2] G,,4z2 | 
[V:1] a2b2a2 & a/d/c/d/ b/d/c/d/ a/d/c/d/ | 
[V:2] [K:clef=treble]G,/D/^F/D/ F/D/F/D/ G,/D/F/D/ & !accent!G,2 z2 !accent!G,2 | 
[V:1] g2x2e2 & g/d/B/d/ ^f/d/B/d/ e/d/B/d/ | 
[V:2] G,/D/G/D/ G/D/G/D/ G,/D/G/D/ & !accent!G,2 z2 !accent!G,2 | 
[V:1] d2e2d2 & d/c/A/c/ e/c/A/c/ d/c/A/c/ | 
[V:2] G,/D/^F/D/ F/D/F/D/ G,/D/F/D/ & G,2 z2 G,2 | 
[V:1] g2 x2 ^g2 & g/d/B/d/ B/d/B/d/ ^g/d/B/d/ | 
[V:2] G,/D/G/D/ G/D/G/D/ G,/D/G/D/ & G,2 z2 G,2 | 
[V:1] a2b2c'2 & a/d/c/d/ b/d/c/d/ c'/d/c/d/ | 
[V:2] G,/D/^F/D/ F/D/F/D/ G,/D/F/D/ & G,2 z2 G,2 | 
[V:1] d'4b2 & d'/d/B/d/ B/d/B/d/ b/d/B/d/ | 
[V:2] G,/D/G/D/ G/D/G/D/ G,/D/G/D/ & G,2 z2 G,2 | 
[V:1] a2b2a2 & a/d/c/d/ b/d/c/d/ a/d/c/d/ | 
[V:2] G,/D/^F/D/ F/D/F/D/ G,/D/F/D/ & G,2 z2 G,2 | 
[V:1] g4g2 & g/d/B/d/ B/d/B/d/ g/d/B/d/ | 
[V:2] G,/D/G/D/ G/D/G/D/ G,2 & G,2 z2 G,2 | 
[V:1] ^f2!accent!g2f2 & ^f/B/A/B/ g/B/A/B/ f/B/A/B/ | 
[V:2] [K:clef=bass]^D2B,2B,2 & E,6 | 
[V:1] e2=d2c2 & e/B/G/B/ =d/B/G/B/ c/B/G/B/ | 
[V:2] E2B,2B,2 & E,6 | 
[V:1] B2!accent!c2B2 & B/A/^F/A/ c/A/F/A/ B/A/F/A/ | 
[V:2] ^D2B,2B,2 & E,6 | 
[V:1] e4e2 & e/B/G/B/ G/B/G/B/ e/B/G/B/ | 
[V:2] E2B,2B,2 & E,6 | 
[V:1] ^f2!accent!g2f2 & ^f/B/A/B/ g/B/A/B/ f/B/A/B/ | 
[V:2] ^D2B,2B,2 & E,6 | 
[V:1] e2=d2c2 & e/B/G/B/ d/B/G/B/ c/B/G/B/ | 
[V:2] E2B,2B,2 & E,6 | 
[V:1] B2!accent!c2B2 & B/A/^F/A/ c/A/F/A/ B/A/F/A/ | 
[V:2] ^D2B,2B,2 & E,6 | 
[V:1] e4e2 & e/B/G/B/ G/B/G/B/ e/B/G/B/ | 
[V:2] E2B,2B,2 & E,6 | 
[V:1] e2!accent!=f2e2 & e/B/^G/B/ f/B/G/B/ e/B/G/B/ | 
[V:2] =D2B,2B,2 & D,6 | 
[V:1] e2!accent!f2e2 & e/c/A/c/ f/c/A/c/ e/c/A/c/ | 
[V:2] C2A,2A,2 & C,6 | 
[V:1] b2c'2b2 & b/d/e/d/ c'/d/e/d/ b/d/e/d/ | 
[V:2] ^G,2E,2E,2 & ^G,,6 | 
[V:1] b4a2 & b/e/c/e/ c/e/c/e/ a/e/c/e/ | 
[V:2] A,2E,2E,2 & A,,6 | 
[V:1] a2!accent!_b2a2 & a/d/^c/e/ _b/e/c/e/ a/e/c/e/ | 
[V:2] G2E2E2 & G,6 | 
[V:1] a2!accent!_b2a2 & a/f/d/f/ _b/f/d/f/ a/f/d/f/ | 
[V:2] F2D2D2 & F,6 | 
[V:1] e'2f'2e'2 & e'/a/g/a/ f'/a/g/a/ e'/a/g/a/ | 
[V:2] ^C2A,2A,2 & ^C,6 | 
[V:1] !accent!e'4d'2 & e'/a/f/a/ f/a/f/a/ d'/a/f/a/ | 
[V:2] D2A,2A,2 & D,6 | 
[V:1] d'2e'2d'2 & d'/g/f/g/ e'/g/f/g/ d'/g/f/g/ | 
[V:2] B,2G,2G,2 & B,,6 | 
[V:1] !accent!d'4c'2 & d'/g/e/g/ e/g/e/g/ c'/g/e/g/ | 
[V:2] C2G,2G,2 & C,6 | 
[V:1] c'2d'2c'2 & c'/f/e/f/ d'/f/e/f/ c'/f/e/f/ | 
[V:2] A,2F,2F,2 & A,,6 | 
[V:1] !accent!c'4b2 & c'/f/d/f/ d/f/d/f/ b/f/d/f/ | 
[V:2] B,2F,2F,2 & B,,6 | 
[V:1] b2c'2b2 & b/e/d/e/ c'/e/d/e/ b/e/d/e/ | 
[V:2] ^G,2E,2E,2 & ^G,,6 | 
[V:1] !accent!b4a2 & b/e/c/e/ c/e/c/e/ a/e/c/e/ | 
[V:2] A,2E,2E,2 & A,,6 | 
[V:1] !accent!b4a2 & b/e/c/e/ c/e/c/e/ a/e/c/e/ | 
[V:2] G,2E,2E,2 & G,,6 | 
[V:1] !accent!b4a2 & b/f/c/f/ c/f/c/f/ a/f/c/f/ | 
[V:2] F,2C,2C,2 & F,,6 | 
[V:1] c'2b2a2 & c'/_e/c/e/ b/e/c/e/ a/f/c/f/ | 
[V:2] ^F,2_E,2E,2 & ^F,,6 | 
[V:1] a2g2g2 & a/=e/c/e/ g/e/c/e/ g/e/c/e/ | 
[V:2] G,2=E,2E,2 & G,,6 | 
[V:1] g2a2b2 & g/f/d/f/ a/f/d/f/ b/f/d/f/ | 
[V:2] G,2D,2G,2 & G,,4G,,2 | 
[V:1] x4c'2 & c'/e/c/e/ c/e/c/e/ c'/g/e/g/ | 
[V:2] C,4z2 | 
[V:1] d'2e'2d'2 & d'/g/f/g/ e'/g/f/g/ d'/g/f/g/ | 
[V:2] C,/G,/B,/G,/ B,/G,/B,/G,/ C,/G,/B,/G,/ & C,2 z2 C,2 | 
[V:1] c'2b2a2 & c'/g/e/g/ b/g/e/g/ a/g/e/g/ | 
[V:2] C,/G,/C/G,/ C/G,/C/G,/ C,/G,/C/G,/ & C,2 z2 C,2 | 
[V:1] g2_a2g2 & g/f/d/f/ _a/f/d/f/ g/f/d/f/ | 
[V:2] C,/G,/B,/G,/ B,/G,/B,/G,/ C,/G,/B,/G,/ & C,2 z2 C,2 | 
[V:1] c'4^c'2 & c'/g/e/g/ e/g/e/g/ ^c'/g/e/g/ | 
[V:2] C,/G,/C/G,/ C/G,/C/G,/ C,/G,/C/G,/ & C,2 z2 C,2 | 
[V:1] d'2e'2f'2 & d'/g/f/g/ e'/g/f/g/ f'/g/f/g/ | 
[V:2] C,/G,/B,/G,/ B,/G,/B,/G,/ C,/G,/B,/G,/ & C,2 z2 C,2 | 
[V:1] g'4e'2 & g'/g/e/g/ e/g/e/g/ e'/g/e/g/ | 
[V:2] C,/G,/C/G,/ C/G,/C/G,/ C,/G,/C/G,/ & C,2 z2 C,2 | 
[V:1] d'2e'2d'2 & d'/g/f/g/ e'/g/f/g/ d'/g/f/g/ | 
[V:2] C,/G,/B,/G,/ B,/G,/B,/G,/ C,/G,/B,/G,/ & C,2 z2 C,2 | 
[V:1] c'4c'2 & c'/g/e/g/ e/g/e/g/ c'/g/e/g/ | 
[V:2] C,/G,/C/G,/ C/G,/C/G,/ C,/G,/C/G,/ & C,2 z2 C,2 | 
[V:1] e'2d'2e'2 & e'/_b/g/b/ d'/b/g/b/ e'/b/g/b/ | 
[V:2] C,/_B,/C/B,/ C/B,/C/B,/ C,/B,/C/B,/ & C,4C,2 | 
[V:1] x4f'2 & d'/a/f/a/ f/a/f/a/ f'/a/f/a/ | 
[V:2] C,/A,/C/A,/ C/A,/C/A,/ C,/A,/C/A,/ & C,4C,2 | 
[V:1] f'2g'2f'2 & f'/=b/g/b/ g'/b/g/b/ f'/b/g/b/ | 
[V:2] C,/G,/=B,/G,/ B,/G,/B,/G,/ C,/G,/B,/G,/ & C,4C,2 | 
[V:1] e'4e'2 & e'/c'/g/c'/ g/c'/g/c'/ e'/c'/g/c'/ | 
[V:2] C,/G,/C/G,/ C/G,/C/G,/ C,/G,/C/G,/ & C,4C,2 | 
[V:1] e'2d'2e'2 & e'/_b/g/b/ d'/b/g/b/ e'/b/g/b/ | 
[V:2] C,/_B,/E/B,/ E/B,/E/B,/ C,/B,/E/B,/ & C,2 z2 C,2 | 
[V:1] f'4f'2 & f'/a/f/a/ f/a/f/a/ f'/a/f/a/ | 
[V:2] C,/A,/F/A,/ F/A,/F/A,/ C,/A,/F/A,/ & C,2 z2 C,2 | 
[V:1] f'2g'2f'2 & f'/=b/g/b/ g'/b/g/b/ f'/b/g/b/ | 
[V:2] C,/G,/D/G,/ D/G,/D/G,/ C,/G,/D/G,/ & C,2 z2 C,2 | 
[V:1] e'4e'2 & e'/g/e/g/ e/g/e/g/ e'/g/e/g/ | 
[V:2] C,/G,/C/G,/ C/G,/C/G,/ C,/G,/C/G,/ & C,2 z2 C,2 | 
[V:1] d'2e'2d'2 & d'/g/f/g/ e'/g/f/g/ d'/g/f/g/ | 
[V:2] C,/G,/B,/G,/ B,/G,/B,/G,/ C,/G,/B,/G,/ & C,2 z2 C,2 | 
[V:1] c'2b2a2 & c'/g/e/g/ b/g/e/g/ a/g/e/g/ | 
[V:2] C,/G,/C/G,/ C/G,/C/G,/ C,/G,/C/G,/ & C,2 z2 C,2 | 
[V:1] g2_a2g2 & g/f/d/f/ _a/f/d/f/ g/f/d/f/ | 
[V:2] C,/G,/B,/G,/ B,/G,/B,/G,/ C,/G,/B,/G,/ & C,2 z2 C,2 | 
[V:1] c'4^c'2 & c'/g/e/g/ e/g/e/g/ ^c'/g/e/g/ | 
[V:2] C,/G,/C/G,/ C/G,/C/G,/ C,/G,/C/G,/ & C,2 z2 C,2 | 
[V:1] d'2e'2f'2 & d'/g/f/g/ e'/g/f/g/ f'/g/f/g/ | 
[V:2] C,/G,/B,/G,/ B,/G,/B,/G,/ C,/G,/B,/G,/ & C,2 z2 C,2 | 
[V:1] g'4e'2 & g'/g/e/g/ e/g/e/g/ e'/g/e/g/ | 
[V:2] C,/G,/C/G,/ C/G,/C/G,/ C,/G,/C/G,/ & C,2 z2 C,2 | 
[V:1] d'2e'2d'2 & d'/g/f/g/ e'/g/f/g/ d'/g/f/g/ | 
[V:2] C,/G,/B,/G,/ B,/G,/B,/G,/ C,/G,/B,/G,/ & C,2 z2 C,2 | 
[V:1] c'4^c'2 & c'/g/e/g/ e/g/e/g/ ^c'/g/e/g/ | 
[V:2] [C,4C4][A,,2A,2] | 
[V:1] x4^d'2 & d'/a/f/a/ f/a/f/a/ ^d'/a/^f/a/ | 
[V:2] [D,4D4][B,,2B,2] | 
[V:1] x4e'2 & e'/b/g/b/ g/b/g/b/ e'/_b/g/b/ | 
[V:2] [E,4E4][C,2C2] | 
[V:1] f'4^f'2 & f'/c'/a/c'/ a/c'/a/c'/ ^f'/c'/a/c'/ | 
[V:2] [F,4F4][D,2D2] | 
[V:1] g'2g'2g'2 & g'/b/g/b/ g'/b/g/b/ g'/c'/g/c'/ | 
[V:2] [G,2G2][=F,2=F2][E,2E2] | 
[V:1] ^f'2=f'2e'2 & ^f'/c'/g/c'/ =f'/d'/_a/f'/ e'/c'/g/e'/ | 
[V:2] [D,2D2][B,,2B,2][C,2C2] | 
[V:1] d'2c'2b2 & d'/=a/f/d'/ c'/g/e/g/ b/f/d/b/ | 
[V:2] F,2G,2G,,2 | 
[V:1] [ec'] E/G/ E/G/E/G/ c2 & x4c/G/E/G/ | 
[V:2] C,4z2 | 
[V:1] d2e2d2 & d/G/F/G/ e/G/F/G/ d/G/F/G/ | 
[V:2] B,2G,2G,2 & C,6 | 
[V:1] c2B2A2 & c/G/E/G/ B/G/E/G/ A/G/E/G/ | 
[V:2] C2G,2G,2 & C,6 | 
[V:1] G2A2B2 & G/F/D/F/ A/F/D/F/ B/F/D/F/ | 
[V:2] B,2G,2D2 & C,6 | 
[V:1] c4^c2 & c/G/E/G/ E/G/E/G/ ^c/G/E/G/ | 
[V:2] C2G,2G,2 & C,6 | 
[V:1] d2e2f2 & d/G/F/G/ e/G/F/G/ f/G/F/G/ | 
[V:2] B,2G,2G,2 & C,6 | 
[V:1] g4e2 & g/G/E/G/ E/G/E/G/ e/G/E/G/ | 
[V:2] C2G,2G,2 & C,6 | 
[V:1] d2e2d2 & d/G/F/G/ e/G/F/G/ d/G/F/G/ | 
[V:2] B,2G,2G,2 & C,6 | 
[V:1] c4c2 & c/G/E/G/ E/G/E/G/ c/G/E/G/ | 
[V:2] C4z2 & C,4x2 | 
[V:1] g4g2 & g/B/G/B/ G/B/G/B/ g/B/G/B/ | 
[V:2] [G,,,4G,,4]{/^F,} !accent!G,2 | 
[V:1] g4g2 & g/c/A/c/ A/c/A/c/ g/c/A/c/ | 
[V:2] [G,,,4G,,4]{/^F,} !accent!G,2 | 
[V:1] g4g2 & g/d/B/d/ B/d/B/d/ g/d/B/d/ | 
[V:2] [G,,,4G,,4]{/^F,} !accent!G,2 | 
[V:1] g4g2 & g/_e/c/e/ c/e/c/e/ g/e/c/e/ | 
[V:2] [G,,,4G,,4]{/^F,} !accent!G,2 | 
[V:1] g4g2 & g/f/d/f/ d/f/d/f/ g/f/d/f/ | 
[V:2] [G,,,4G,,4]{/^F,} G,2 | 
[V:1] g4g2 & g/_e/c/e/ c/e/c/e/ g/e/c/e/ | 
[V:2] [G,,,4G,,4]{/^F,} G,2 | 
[V:1] ^f2f2f2 & ^f/_e/c/e/ f/d/c/d/ f/e/c/e/ | 
[V:2] [G,,2G,2][G,,2G,2][G,,2G,2] | 
[V:1] g4g2 & g/d/B/d/ B/d/B/d/ g/d/B/d/ | 
[V:2] [G,,4G,4]z2 | 
[V:1] d2e2d2 & d/G/F/G/ e/G/F/G/ d/G/F/G/ | 
[V:2] B,2G,2G,2 & C,6 | 
[V:1] c2B2A2 & c/G/E/G/ B/G/E/G/ A/G/E/G/ | 
[V:2] C2G,2G,2 & C,6 | 
[V:1] G2_A2G2 & G/F/D/F/ _A/F/D/F/ G/F/D/F/ | 
[V:2] B,2G,2G,2 & C,6 | 
[V:1] c4^c2 & c/G/E/G/ E/G/E/G/ ^c/G/E/G/ | 
[V:2] C2G,2G,2 & C,6 | 
[V:1] d2e2f2 & d/G/F/G/ e/G/F/G/ f/G/F/G/ | 
[V:2] C2G,2G,2 & C,6 | 
[V:1] g4e2 & g/G/E/G/ E/G/E/G/ e/G/E/G/ | 
[V:2] C2G,2G,2 & C,6 | 
[V:1] d2e2d2 & d/G/F/G/ e/G/F/G/ d/G/F/G/ | 
[V:2] B,2G,2G,2 & C,6 | 
[V:1] c4^c2 & c/G/E/G/ E/G/E/G/ ^c/G/E/G/ | 
[V:2] [C,4C4][A,,2A,2] | 
[V:1] d4^d2 & d/A/F/A/ F/A/F/A/ ^d/A/F/A/ | 
[V:2] [D,4D4][B,,2B,2] | 
[V:1] e4e2 & e/B/G/B/ G/B/G/B/ e/_B/G/B/ | 
[V:2] [E,4E4][C,2C2] | 
[V:1] f4^f2 & f/c/A/c/ A/c/A/c/ ^f/c/A/c/ | 
[V:2] [F,4F4][D,2D2] | 
[V:1] g2g2g2 & g/B/G/B/ g/B/G/B/ g/c/G/c/ | 
[V:2] [G,2G2][F,2F2][E,2E2] | 
[V:1] ^f2=f2e2 & ^f/c/A/f/ =f/d/_A/f/ e/c/G/e/ | 
[V:2] [D,2D2][B,,2B,2][C,2C2] | 
[V:1] d2c2B2 & d/=A/F/d/ c/G/E/c/ B/F/D/B/ | 
[V:2] !wedge!F,2!wedge!G,2!wedge!G,,2 | 
[V:1] [Ec] E/G/ E/G/E/G/ c2 & x4c/G/E/G/ | 
[V:2] C,4z2 | 
[V:1] d2e2d2 & d/G/F/G/ e/G/F/G/ d/G/F/G/ | 
[V:2] B,2G,2G,2 & C,6 | 
[V:1] c4!accent!^c2 & c/G/E/G/ E/G/E/G/ ^c/G/E/G/ | 
[V:2] C2G,2G,2 & C,6 | 
[V:1] d2e2d2 & d/G/F/G/ e/G/F/G/ d/G/F/G/ | 
[V:2] B,2G,2G,2 & C,6 | 
[V:1] c4e2 & c/G/E/G/ E/G/E/G/ e/G/E/G/ | 
[V:2] C2G,2G,2 & C,6 | 
[V:1] c4e2 & c/G/E/G/ E/G/E/G/ e/G/E/G/ | 
[V:2] C2G,2G,2 & C,6 | 
[V:1] [E2G2c2] z C/E/ G/c/e/g/ | 
[V:2] [C,2C2] z C/G,/ E,/C,/G,,/E,,/ | 
[V:1] [c2e2g2c'2] z C/E/ G/c/e/g/ | 
[V:2] C,,2 z C/G,/ E,/C,/G,,/E,,/ | 
[V:1] !fermata![c4e4g4c'4]!fermata!z2 |]  
[V:2] !fermata!C,,4!fermata!z2 |]  


